X:832
T:MacLeod's Farewell
T:Wedding Reel, The
R:reel
C:Donald Shaw, Scotland
S:Ulf Duus
D:Lúnasa: The Merry Sisters of Fate
Z:id:hn-reel-831
M:C|
L:1/8
K:D
DE | EFBF AFEF | D2DE FABd | e2fd efdB | ABde dBAG |
~F2BF AFEF | D2DE FABd | e2fd efdB |1 ABde d2 :|2 ABde d3B ||
|: ~A3f edfd | ~A3f edfd | ABdA BdAB | dBAF E2DE |
~F2BF AFEF | D2DE FABd | e2fd efdB |1 ABde d3B :|2 ABde d2 ||
P:variations
|: DE | ~F2BF AFEF | D2DE FABd | e2fd efed | ABeB dBAG |
E~F2B AFEF | D2DE FABd | e2fd efdB |1 ABde d2 :|2 ABde d3B ||
|: ~A3f edfd | ~A3f edfd | ABdA BdAB | dBAF EDB,D |
E~F2B AFEF | D2DE FABd | e2fd efdB |1 ABde d3B :|2 ABde d2 ||